X: 1
T: Laura And Ethena
M: 4/4
L: 1/8
R: reel
K: Dmin
A^c|d2 fd AFDF|E1/2E1/2E cE dEcE|^cdfd AFDF|A d2^c dAfA|
d2 fd AFDF|E1/2E1/2E cE decE|defe dcAF|GFEC CDDA|
^cdfd AFDF| E1/2E1/2E cE dEcE|^cdfd afdf|a d2^c cAFA|
^cdfd AFDF|E1/2E1/2E cE dEcE|defe dcAF|GFEC CDDA|
^cdad bdad|d1/2d1/2d ad bdad|c1/2c1/2c gc acgc|c2 g a2 gfe|
B1/2B1/2B fB gBfB|B1/2B1/2B f g2 fed|^cAce _agfe|fgef dA=B^c|
dafd afda|bagf efed|cgec gecg|agfe fedc|
ABfB BgBB|_aB  B1/2B1/2B gBfB|e^de^g a=gfe|fgef dD|
